X:1
T:051 - Vida Na Graça
T:Letra: Francis Bottome (1823-1894)
T:Trad.: Manuel Avelino de Souza (1886-1962)
T:Música: William Batchelder Bradbury (1816-1868)
M:3/4
L:1/8
K:C
V:1
G2 | "C"G4 A>B | c>B c4 | "G7"d4 c>d | "C"e4 dc | "F"c4 B>A | "C"G3E G2 | "G"B2c2"G7"d2 | "C"c4 G2 | "C"G4 A>B | c>B c4 | "G7"d4 c>d | "C"e4 dc | "F"c4 B>A | "C"G3E G2 | "G"B2c2"G7"d2 | "C"c4 || G2 | "C"G4 "(G7)"F>F | "(C)"E>F G4 | "G7"B4 A>B | "C"c>G G4 | "F"A4 B>c | "C"c>G G4 | "G"G2G2"G7"G2 | "C"G4 |]
w: 1.~Ja-mais hou-veal-guém fe-liz co-moo cris-tão, O_ qual al-can-çou de Deus bên-çãos dea-mor; E tem ver-da-dei-ra paz com seu Se-nhor, Fru_in-do pra-zer do céu, gra-çae per-dão.     Pra-zer, a-le-gria, a-mor,    Tu-do lhe dá Je-sus!    Paz e per-dão, fa-vor       Go-za na luz!  
w: 2.~Ter-ror já não tem de Deus; fo-ge do mal; Na_ san-ta pre-sen-çaes-tá; vi-ve na luz, Go-zan-do da re-den-ção fei-ta na cruz; De_se-ja cres-cer na fé, fir-mee le-al.  
w: 3.~Je-sus é seu Me-dia-dor; crê no por-vir; Da_ san-ta Pa-la-vra tem for-çae po-der. Por Cris-to de-se-ja,en-tão, tu-do fa-zer; A_ luz da ver-da-de quer sem-preex-pan-dir.
W: 
W:
W: 1. Jamais houve alguém feliz como o cristão,
W: O qual alcançou de Deus bênçãos de amor;
W: E tem verdadeira paz com seu Senhor,
W: Fruindo prazer do céu, graça e perdão.
W: 
W:    (Estribilho)
W:    Prazer, alegria, amor,
W:    Tudo lhe dá Jesus!
W:    Paz e perdão, favor   
W:    Goza na luz!
W: 
W:
W:
W: 2. Terror já não tem de Deus; foge do mal;
W: Na santa presença está; vive na luz,
W: Gozando da redenção feita na cruz;
W: Deseja crescer na fé, firme e leal.
W: 
W: 3. Jesus é seu Mediador; crê no porvir;
W: Da santa Palavra tem força e poder.
W: Por Cristo deseja, então, tudo fazer;
W: A luz da verdade quer sempre expandir.
W:         
W: 





